X:203 
T:Taste of Scotland* (reel), A
B:CRE5.172 (gan ainm)
F:file ID: cre.5/203taste
M:4/4
Q:180
R:reel
K:Am
EDAB cBA^F|G2BG dGBG|EDAB cde^f|g^fgb BAA2:|
a2ea age^f|g2e^f gefg|a2ea age^f|g^fgb BAA^f|
a2ea age^f|g2e^f gefg|aba^f gfef| g^fgb BAA2|]

%%%

